X:1
T:Minuet 4th
T:Minuet No. 4
T:Ignatius Sancho (c. 1729–1780)
C:Ignatius Sancho
%%score { ( 1 3 ) | 2 }
L:1/8
M:3/4
K:F
V:1 treble nm="Piano" snm="Pno."
V:3 treble 
V:2 bass 
V:1
 (f>c)(c>A)(A>F) | A A2 A2 A | (b>g) (g>e) (e>c) | c c2 c2 c | (f>c) (c>A) (A>F) | A A2 A2 A | %6
 (3ABc (3fed (3cBA |{A} G6 :: G>B B>e e>g | g B2 B2 B | A>c c>f f>a | a c2 c2 c | c>f f>a a>c | %13
 d>f e>g f>c |{e} (3dcB A2 G2 | F6 |] %16
V:2
 F,2 F,2 F,2 | F,2 F,2 F,2 | C,2 C,2 C,2 | C,2 C,2 C,2 | F,2 F,2 F,2 | F,2 F,2 F,2 | F,2 A,2 F,2 | %7
 C2 C,2 z2 :: C,2 C,2 C,2 | C,2 C,2 C,2 | F,2 F,2 F,2 | F,2 F,2 F,2 | A,,4 A,,2 | B,,4 A,,2 | %14
 B,,2 C,2 C,,2 | F,,6 |] %16
V:3
 x6 | F6 | x6 | E6 | x6 | F6 | x6 | x6 :: x6 | G4- G G | x6 | F4- F F | x6 | x6 | x6 | x6 |] %16

